X: 18902
T: Incandescent
R: reel
M: 4/4
K: Fmajor
AG|:FCA,C FGAB|cfag fdcA|Bdba gfef|gfed cBAG|FCA,C FGAB|
cfag fdcA|1 Bdfb Afed|cBAG F2 AG:|2 Bdfb Acfa|gece f2 ed||
ceg^f gece|fgag fcAc|=Bdgf edc=B|cdcB AGFE|FCA,B, CFAF|
DGBA GFDC|1 B,DFB Acfa|gece f2 ed:|2 B,DFB Afed cBAG F4||

